X:15
M:4/4
L:1/2
Q:1/4=120
K:Gmin
V:1
[DGB][B,DG]|[CD^F][CDA]|[B,DG][CEG]|[A,D^F]2|[B,DG][C^FA]|[DGB][EGA]|[DGB][C^FA]|[B,DG]2||
V:2
G,,B,,|A,,^F,,|G,,C,|D,2|B,,A,,|G,,C,|D,D,|G,,2||
w:g:~i i6 V4/3 V6/5 i iv V i6 viid6 i iid6/5 cad6/4 V7 i

